;START_OF_HEADER
;HEADER_VERSION:0.1
;FLAVOR:Griffin
;GENERATOR.NAME:Cura_SteamEngine
;GENERATOR.VERSION:2.5.0
;GENERATOR.BUILD_DATE:2017-04-19
;TARGET_MACHINE.NAME:Ultimaker 3
;EXTRUDER_TRAIN.0.INITIAL_TEMPERATURE:255
;EXTRUDER_TRAIN.0.MATERIAL.VOLUME_USED:9346
;EXTRUDER_TRAIN.0.MATERIAL.GUID:28fb4162-db74-49e1-9008-d05f1e8bef5c
;EXTRUDER_TRAIN.0.NOZZLE.DIAMETER:0.4
;BUILD_PLATE.INITIAL_TEMPERATURE:50
;PRINT.TIME:11471
;PRINT.SIZE.MIN.X:9
;PRINT.SIZE.MIN.Y:6
;PRINT.SIZE.MIN.Z:0.27
;PRINT.SIZE.MAX.X:148.499
;PRINT.SIZE.MAX.Y:141.8
;PRINT.SIZE.MAX.Z:6.75
;END_OF_HEADER
;Generated with Cura_SteamEngine 2.5.0

T0
G92 E0

M109 S255
G0 F15000 X9 Y6 Z2
G280
G1 F1500 E-8
;LAYER_COUNT:60
;LAYER:0
M107
M204 S625
M205 X6
G0 F5000 X146.628 Y139.563 Z0.27
M204 S500
M205 X5
;TYPE:SKIRT
G1 F1500 E0
G1 F1200 X146.091 Y140.084 E0.01267
G1 X145.501 Y140.543 E0.02532
G1 X144.865 Y140.938 E0.038
G1 X144.191 Y141.262 E0.05066
G1 X143.486 Y141.512 E0.06332
G1 X142.758 Y141.686 E0.07599
G1 X142.016 Y141.781 E0.08866
G1 X141.499 Y141.8 E0.09742
G1 X91.5 Y141.8 E0.94387
G1 X90.753 Y141.76 E0.95654
G1 X90.015 Y141.641 E0.96919
G1 X89.293 Y141.443 E0.98187
G1 X88.597 Y141.17 E0.99452
G1 X87.934 Y140.823 E1.00719
G1 X87.311 Y140.408 E1.01987
G1 X86.737 Y139.929 E1.03252
G1 X86.216 Y139.392 E1.04519
G1 X85.757 Y138.802 E1.05784
G1 X85.362 Y138.166 E1.07052
G1 X85.038 Y137.492 E1.08318
G1 X84.788 Y136.787 E1.09584
G1 X84.614 Y136.059 E1.10851
G1 X84.519 Y135.317 E1.12118
G1 X84.5 Y134.8 E1.12994
G1 X84.5 Y84.801 E1.9764
G1 X84.54 Y84.054 E1.98906
G1 X84.659 Y83.316 E2.00172
G1 X84.857 Y82.594 E2.01439
G1 X85.13 Y81.898 E2.02705
G1 X85.477 Y81.235 E2.03972
G1 X85.892 Y80.612 E2.05239
G1 X86.371 Y80.038 E2.06504
G1 X86.908 Y79.517 E2.07771
G1 X87.498 Y79.058 E2.09037
G1 X88.134 Y78.663 E2.10304
G1 X88.808 Y78.339 E2.1157
G1 X89.513 Y78.089 E2.12837
G1 X90.241 Y77.915 E2.14104
G1 X90.983 Y77.82 E2.1537
G1 X91.5 Y77.801 E2.16246
G1 X141.499 Y77.801 E3.00892
G1 X142.246 Y77.841 E3.02158
G1 X142.984 Y77.96 E3.03424
G1 X143.706 Y78.158 E3.04691
G1 X144.402 Y78.431 E3.05957
G1 X145.065 Y78.778 E3.07224
G1 X145.688 Y79.193 E3.08491
G1 X146.262 Y79.672 E3.09757
G1 X146.783 Y80.209 E3.11023
G1 X147.242 Y80.799 E3.12289
G1 X147.637 Y81.435 E3.13556
G1 X147.961 Y82.109 E3.14822
G1 X148.211 Y82.814 E3.16089
G1 X148.385 Y83.542 E3.17356
G1 X148.48 Y84.284 E3.18622
G1 X148.499 Y84.801 E3.19498
G1 X148.499 Y134.8 E4.04144
G1 X148.459 Y135.547 E4.0541
G1 X148.34 Y136.285 E4.06676
G1 X148.142 Y137.007 E4.07943
G1 X147.869 Y137.703 E4.09209
G1 X147.522 Y138.366 E4.10476
G1 X147.107 Y138.989 E4.11743
G1 X146.628 Y139.563 E4.13009
M204 S625
M205 X6
G0 F5000 X146.234 Y139.398
M204 S500
M205 X5
G1 F1200 X145.7 Y139.891 E4.14239
G1 X145.115 Y140.321 E4.15468
G1 X144.486 Y140.685 E4.16699
G1 X143.821 Y140.978 E4.17929
G1 X143.128 Y141.196 E4.19159
G1 X142.416 Y141.336 E4.20387
G1 X141.499 Y141.4 E4.21944
G1 X91.5 Y141.4 E5.06589
G1 X90.775 Y141.36 E5.07819
G1 X90.058 Y141.241 E5.09049
G1 X89.359 Y141.043 E5.10279
G1 X88.686 Y140.77 E5.11509
G1 X88.047 Y140.425 E5.12738
G1 X87.45 Y140.011 E5.13968
G1 X86.902 Y139.535 E5.15197
G1 X86.409 Y139.001 E5.16427
G1 X85.979 Y138.416 E5.17656
G1 X85.615 Y137.787 E5.18887
G1 X85.322 Y137.122 E5.20117
G1 X85.104 Y136.429 E5.21347
G1 X84.964 Y135.717 E5.22575
G1 X84.9 Y134.8 E5.24131
G1 X84.9 Y84.801 E6.08777
G1 X84.94 Y84.076 E6.10007
G1 X85.059 Y83.359 E6.11237
G1 X85.257 Y82.66 E6.12467
G1 X85.53 Y81.987 E6.13696
G1 X85.875 Y81.348 E6.14926
G1 X86.289 Y80.751 E6.16156
G1 X86.765 Y80.203 E6.17385
G1 X87.299 Y79.71 E6.18615
G1 X87.884 Y79.28 E6.19844
G1 X88.513 Y78.916 E6.21074
G1 X89.178 Y78.623 E6.22305
G1 X89.871 Y78.405 E6.23535
G1 X90.583 Y78.265 E6.24763
G1 X91.5 Y78.201 E6.26319
G1 X141.499 Y78.201 E7.10965
G1 X142.224 Y78.241 E7.12194
G1 X142.941 Y78.36 E7.13425
G1 X143.64 Y78.558 E7.14655
G1 X144.313 Y78.831 E7.15884
G1 X144.952 Y79.176 E7.17114
G1 X145.549 Y79.59 E7.18344
G1 X146.097 Y80.066 E7.19572
G1 X146.59 Y80.6 E7.20803
G1 X147.02 Y81.185 E7.22032
G1 X147.384 Y81.814 E7.23262
G1 X147.677 Y82.479 E7.24493
G1 X147.895 Y83.172 E7.25722
G1 X148.035 Y83.884 E7.26951
G1 X148.099 Y84.801 E7.28507
G1 X148.099 Y134.8 E8.13153
G1 X148.059 Y135.525 E8.14382
G1 X147.94 Y136.242 E8.15613
G1 X147.742 Y136.941 E8.16843
G1 X147.469 Y137.614 E8.18072
G1 X147.124 Y138.253 E8.19301
G1 X146.71 Y138.85 E8.20531
G1 X146.234 Y139.398 E8.2176
M204 S625
M205 X6
G0 F5000 X145.84 Y139.227
M204 S500
M205 X5
G1 F1200 X145.31 Y139.691 E8.22953
G1 X144.731 Y140.091 E8.24144
G1 X144.11 Y140.423 E8.25336
G1 X143.456 Y140.683 E8.26528
G1 X142.776 Y140.867 E8.2772
G1 X142.08 Y140.973 E8.28912
G1 X141.499 Y141 E8.29897
G1 X91.5 Y141 E9.14543
G1 X90.797 Y140.96 E9.15735
G1 X90.103 Y140.841 E9.16927
G1 X89.428 Y140.643 E9.18118
G1 X88.779 Y140.371 E9.19309
G1 X88.165 Y140.026 E9.20501
G1 X87.594 Y139.615 E9.21692
G1 X87.073 Y139.141 E9.22885
G1 X86.609 Y138.611 E9.24077
G1 X86.209 Y138.032 E9.25269
G1 X85.877 Y137.411 E9.26461
G1 X85.617 Y136.757 E9.27652
G1 X85.433 Y136.077 E9.28845
G1 X85.327 Y135.381 E9.30037
G1 X85.3 Y134.8 E9.31022
G1 X85.3 Y84.801 E10.15667
G1 X85.34 Y84.098 E10.16859
G1 X85.459 Y83.404 E10.18052
G1 X85.657 Y82.729 E10.19242
G1 X85.929 Y82.08 E10.20434
G1 X86.274 Y81.466 E10.21626
G1 X86.685 Y80.895 E10.22817
G1 X87.159 Y80.374 E10.2401
G1 X87.689 Y79.91 E10.25202
G1 X88.268 Y79.51 E10.26393
G1 X88.889 Y79.178 E10.27586
G1 X89.543 Y78.918 E10.28777
G1 X90.223 Y78.734 E10.2997
G1 X90.919 Y78.628 E10.31162
G1 X91.5 Y78.601 E10.32146
G1 X141.499 Y78.601 E11.16792
G1 X142.202 Y78.641 E11.17984
G1 X142.896 Y78.76 E11.19176
G1 X143.571 Y78.958 E11.20367
G1 X144.22 Y79.23 E11.21558
G1 X144.834 Y79.575 E11.22751
G1 X145.405 Y79.986 E11.23942
G1 X145.926 Y80.46 E11.25134
G1 X146.39 Y80.99 E11.26327
G1 X146.79 Y81.569 E11.27518
G1 X147.122 Y82.19 E11.2871
G1 X147.382 Y82.844 E11.29902
G1 X147.566 Y83.524 E11.31094
G1 X147.672 Y84.22 E11.32286
G1 X147.699 Y84.801 E11.33271
G1 X147.699 Y134.8 E12.17917
G1 X147.659 Y135.503 E12.19109
G1 X147.54 Y136.197 E12.20301
G1 X147.342 Y136.872 E12.21492
G1 X147.07 Y137.521 E12.22683
G1 X146.725 Y138.135 E12.23875
G1 X146.314 Y138.706 E12.25066
G1 X145.84 Y139.227 E12.26259
M204 S625
M205 X6
G0 F5000 X145.446 Y139.049
M204 S500
M205 X5
G1 F1200 X144.921 Y139.483 E12.27412
G1 X144.349 Y139.852 E12.28564
G1 X143.737 Y140.151 E12.29717
G1 X143.095 Y140.376 E12.30869
G1 X142.43 Y140.525 E12.32023
G1 X141.499 Y140.6 E12.33604
G1 X91.5 Y140.6 E13.1825
G1 X90.82 Y140.56 E13.19403
G1 X90.15 Y140.441 E13.20555
G1 X89.498 Y140.244 E13.21708
G1 X88.874 Y139.972 E13.22861
G1 X88.286 Y139.628 E13.24014
G1 X87.742 Y139.218 E13.25167
G1 X87.251 Y138.747 E13.26319
G1 X86.817 Y138.222 E13.27472
G1 X86.448 Y137.65 E13.28625
G1 X86.149 Y137.038 E13.29778
G1 X85.924 Y136.396 E13.30929
G1 X85.775 Y135.731 E13.32083
G1 X85.7 Y134.8 E13.33664
G1 X85.7 Y84.801 E14.1831
G1 X85.74 Y84.121 E14.19463
G1 X85.859 Y83.451 E14.20615
G1 X86.056 Y82.799 E14.21769
G1 X86.328 Y82.175 E14.22921
G1 X86.672 Y81.587 E14.24074
G1 X87.082 Y81.043 E14.25227
G1 X87.553 Y80.552 E14.26379
G1 X88.078 Y80.118 E14.27532
G1 X88.65 Y79.749 E14.28685
G1 X89.262 Y79.45 E14.29838
G1 X89.904 Y79.225 E14.3099
G1 X90.569 Y79.076 E14.32143
G1 X91.5 Y79.001 E14.33725
G1 X141.499 Y79.001 E15.1837
G1 X142.179 Y79.041 E15.19524
G1 X142.849 Y79.16 E15.20676
G1 X143.501 Y79.357 E15.21829
G1 X144.125 Y79.629 E15.22981
G1 X144.713 Y79.973 E15.24134
G1 X145.257 Y80.383 E15.25288
G1 X145.748 Y80.854 E15.2644
G1 X146.182 Y81.379 E15.27593
G1 X146.551 Y81.951 E15.28745
G1 X146.85 Y82.563 E15.29898
G1 X147.075 Y83.205 E15.3105
G1 X147.224 Y83.87 E15.32204
G1 X147.299 Y84.801 E15.33785
G1 X147.299 Y134.8 E16.18431
G1 X147.259 Y135.48 E16.19584
G1 X147.14 Y136.15 E16.20736
G1 X146.943 Y136.802 E16.21889
G1 X146.671 Y137.426 E16.23041
G1 X146.327 Y138.014 E16.24195
G1 X145.917 Y138.558 E16.25348
G1 X145.446 Y139.049 E16.265
M204 S625
M205 X6
G0 F5000 X145.054 Y138.865
M204 S500
M205 X5
G1 F1200 X144.534 Y139.266 E16.27612
G1 X143.97 Y139.602 E16.28723
G1 X143.368 Y139.866 E16.29836
G1 X142.739 Y140.056 E16.30948
G1 X142.092 Y140.167 E16.3206
G1 X141.499 Y140.2 E16.33065
G1 X91.5 Y140.2 E17.17711
G1 X90.844 Y140.16 E17.18823
G1 X90.198 Y140.041 E17.19935
G1 X89.571 Y139.844 E17.21048
G1 X88.973 Y139.572 E17.2216
G1 X88.412 Y139.23 E17.23273
G1 X87.897 Y138.822 E17.24385
G1 X87.435 Y138.355 E17.25497
G1 X87.034 Y137.835 E17.26609
G1 X86.698 Y137.271 E17.2772
G1 X86.434 Y136.669 E17.28833
G1 X86.244 Y136.04 E17.29945
G1 X86.133 Y135.393 E17.31057
G1 X86.1 Y134.8 E17.32062
G1 X86.1 Y84.801 E18.16708
G1 X86.14 Y84.145 E18.17821
G1 X86.259 Y83.499 E18.18933
G1 X86.456 Y82.872 E18.20045
G1 X86.728 Y82.274 E18.21158
G1 X87.07 Y81.713 E18.2227
G1 X87.478 Y81.198 E18.23382
G1 X87.945 Y80.736 E18.24494
G1 X88.465 Y80.335 E18.25606
G1 X89.029 Y79.999 E18.26717
G1 X89.631 Y79.735 E18.2783
G1 X90.26 Y79.545 E18.28943
G1 X90.907 Y79.434 E18.30054
G1 X91.5 Y79.401 E18.31059
G1 X141.499 Y79.401 E19.15705
G1 X142.155 Y79.441 E19.16818
G1 X142.801 Y79.56 E19.1793
G1 X143.428 Y79.757 E19.19043
G1 X144.026 Y80.029 E19.20155
G1 X144.587 Y80.371 E19.21267
G1 X145.102 Y80.779 E19.22379
G1 X145.564 Y81.246 E19.23492
G1 X145.965 Y81.766 E19.24603
G1 X146.301 Y82.33 E19.25715
G1 X146.565 Y82.932 E19.26828
G1 X146.755 Y83.561 E19.2794
G1 X146.866 Y84.208 E19.29051
G1 X146.899 Y84.801 E19.30057
G1 X146.899 Y134.8 E20.14703
G1 X146.859 Y135.456 E20.15815
G1 X146.74 Y136.102 E20.16927
G1 X146.543 Y136.729 E20.1804
G1 X146.271 Y137.327 E20.19152
G1 X145.929 Y137.888 E20.20264
G1 X145.521 Y138.403 E20.21377
G1 X145.054 Y138.865 E20.22489
M204 S625
M205 X6
G0 F5000 X144.663 Y138.671
M204 S500
M205 X5
G1 F1200 X144.149 Y139.04 E20.2356
G1 X143.593 Y139.34 E20.2463
G1 X143.004 Y139.568 E20.25699
G1 X142.39 Y139.72 E20.2677
G1 X141.499 Y139.8 E20.28284
G1 X91.5 Y139.8 E21.1293
G1 X90.869 Y139.76 E21.14
G1 X90.248 Y139.641 E21.15071
G1 X89.648 Y139.444 E21.1614
G1 X89.076 Y139.173 E21.17211
G1 X88.544 Y138.833 E21.1828
G1 X88.059 Y138.427 E21.19351
G1 X87.629 Y137.964 E21.20421
G1 X87.26 Y137.45 E21.21492
G1 X86.96 Y136.894 E21.22562
G1 X86.732 Y136.305 E21.23631
G1 X86.58 Y135.691 E21.24702
G1 X86.5 Y134.8 E21.26216
G1 X86.5 Y84.801 E22.10862
G1 X86.54 Y84.17 E22.11932
G1 X86.659 Y83.549 E22.13003
G1 X86.856 Y82.949 E22.14072
G1 X87.127 Y82.377 E22.15144
G1 X87.467 Y81.845 E22.16212
G1 X87.873 Y81.36 E22.17283
G1 X88.336 Y80.93 E22.18353
G1 X88.85 Y80.561 E22.19424
G1 X89.406 Y80.261 E22.20494
G1 X89.995 Y80.033 E22.21563
G1 X90.609 Y79.881 E22.22634
G1 X91.5 Y79.801 E22.24148
G1 X141.499 Y79.801 E23.08794
G1 X142.13 Y79.841 E23.09864
G1 X142.751 Y79.96 E23.10935
G1 X143.351 Y80.157 E23.12004
G1 X143.923 Y80.428 E23.13076
G1 X144.455 Y80.768 E23.14144
G1 X144.94 Y81.174 E23.15215
G1 X145.37 Y81.637 E23.16285
G1 X145.739 Y82.151 E23.17356
G1 X146.039 Y82.707 E23.18426
G1 X146.267 Y83.296 E23.19495
G1 X146.419 Y83.91 E23.20566
G1 X146.499 Y84.801 E23.2208
G1 X146.499 Y134.8 E24.06726
G1 X146.459 Y135.431 E24.07797
G1 X146.34 Y136.052 E24.08867
G1 X146.143 Y136.652 E24.09936
G1 X145.872 Y137.224 E24.11008
G1 X145.532 Y137.756 E24.12077
G1 X145.126 Y138.241 E24.13147
G1 X144.663 Y138.671 E24.14217
M204 S625
M205 X6
G0 F5000 X144.274 Y138.469
M204 S500
M205 X5
G1 F1200 X143.767 Y138.802 E24.15244
G1 X143.221 Y139.066 E24.16271
G1 X142.645 Y139.255 E24.17297
G1 X142.049 Y139.367 E24.18324
G1 X141.499 Y139.4 E24.19256
G1 X91.5 Y139.4 E25.03902
G1 X90.895 Y139.36 E25.04929
G1 X90.301 Y139.241 E25.05954
G1 X89.727 Y139.045 E25.06981
G1 X89.184 Y138.774 E25.08009
G1 X88.681 Y138.435 E25.09036
G1 X88.228 Y138.033 E25.10061
G1 X87.831 Y137.575 E25.11087
G1 X87.498 Y137.068 E25.12114
G1 X87.234 Y136.522 E25.13141
G1 X87.045 Y135.946 E25.14167
G1 X86.933 Y135.35 E25.15194
G1 X86.9 Y134.8 E25.16126
G1 X86.9 Y84.801 E26.00772
G1 X86.94 Y84.196 E26.01799
G1 X87.059 Y83.602 E26.02824
G1 X87.255 Y83.028 E26.03851
G1 X87.526 Y82.485 E26.04878
G1 X87.865 Y81.982 E26.05905
G1 X88.267 Y81.529 E26.06931
G1 X88.725 Y81.132 E26.07957
G1 X89.232 Y80.799 E26.08984
G1 X89.778 Y80.535 E26.1001
G1 X90.354 Y80.346 E26.11037
G1 X90.95 Y80.234 E26.12063
G1 X91.5 Y80.201 E26.12996
G1 X141.499 Y80.201 E26.97642
G1 X142.104 Y80.241 E26.98668
G1 X142.698 Y80.36 E26.99694
G1 X143.272 Y80.556 E27.00721
G1 X143.815 Y80.827 E27.01748
G1 X144.318 Y81.166 E27.02775
G1 X144.771 Y81.568 E27.03801
G1 X145.168 Y82.026 E27.04827
G1 X145.501 Y82.533 E27.05854
G1 X145.765 Y83.079 E27.0688
G1 X145.954 Y83.655 E27.07907
G1 X146.066 Y84.251 E27.08933
G1 X146.099 Y84.801 E27.09866
G1 X146.099 Y134.8 E27.94512
G1 X146.059 Y135.405 E27.95538
G1 X145.94 Y135.999 E27.96564
G1 X145.744 Y136.573 E27.97591
G1 X145.473 Y137.116 E27.98618
G1 X145.134 Y137.619 E27.99645
G1 X144.732 Y138.072 E28.0067
G1 X144.274 Y138.469 E28.01697
M204 S625
M205 X6
G0 F5000 X143.886 Y138.256
M204 S500
M205 X5
G1 F1200 X143.388 Y138.551 E28.02676
G1 X142.854 Y138.776 E28.03657
G1 X142.294 Y138.924 E28.04638
G1 X141.499 Y139 E28.0599
G1 X91.5 Y139 E28.90636
G1 X90.922 Y138.96 E28.91617
G1 X90.355 Y138.841 E28.92598
G1 X89.81 Y138.645 E28.93578
G1 X89.297 Y138.376 E28.94559
G1 X88.826 Y138.039 E28.95539
G1 X88.406 Y137.64 E28.9652
G1 X88.044 Y137.187 E28.97502
G1 X87.749 Y136.689 E28.98482
G1 X87.524 Y136.155 E28.99463
G1 X87.376 Y135.595 E29.00443
G1 X87.3 Y134.8 E29.01795
G1 X87.3 Y84.801 E29.86441
G1 X87.34 Y84.223 E29.87422
G1 X87.459 Y83.656 E29.88403
G1 X87.655 Y83.111 E29.89383
G1 X87.924 Y82.598 E29.90364
G1 X88.261 Y82.127 E29.91344
G1 X88.66 Y81.707 E29.92325
G1 X89.113 Y81.345 E29.93307
G1 X89.611 Y81.05 E29.94287
G1 X90.145 Y80.825 E29.95268
G1 X90.705 Y80.677 E29.96248
G1 X91.5 Y80.601 E29.976
G1 X141.499 Y80.601 E30.82246
G1 X142.077 Y80.641 E30.83227
G1 X142.644 Y80.76 E30.84208
G1 X143.189 Y80.956 E30.85188
G1 X143.702 Y81.225 E30.86169
G1 X144.173 Y81.562 E30.87149
G1 X144.593 Y81.961 E30.8813
G1 X144.955 Y82.414 E30.89112
G1 X145.25 Y82.912 E30.90092
G1 X145.475 Y83.446 E30.91073
G1 X145.623 Y84.006 E30.92053
G1 X145.699 Y84.801 E30.93405
G1 X145.699 Y134.8 E31.78051
G1 X145.659 Y135.378 E31.79032
G1 X145.54 Y135.945 E31.80013
G1 X145.344 Y136.49 E31.80993
G1 X145.075 Y137.003 E31.81974
G1 X144.738 Y137.474 E31.82954
G1 X144.339 Y137.894 E31.83935
G1 X143.886 Y138.256 E31.84917
M204 S625
M205 X6
G0 F5000 X143.501 Y138.03
M204 S500
M205 X5
G1 F1200 X143.013 Y138.285 E31.85849
G1 X142.493 Y138.468 E31.86782
G1 X141.952 Y138.573 E31.87715
G1 X141.499 Y138.6 E31.88484
G1 X91.5 Y138.6 E32.73129
G1 X90.95 Y138.56 E32.74063
G1 X90.412 Y138.441 E32.74996
G1 X89.897 Y138.245 E32.75929
G1 X89.416 Y137.977 E32.76861
G1 X88.978 Y137.643 E32.77793
G1 X88.594 Y137.248 E32.78726
G1 X88.27 Y136.802 E32.79659
G1 X88.015 Y136.314 E32.80591
G1 X87.832 Y135.794 E32.81525
G1 X87.727 Y135.253 E32.82458
G1 X87.7 Y134.8 E32.83226
G1 X87.7 Y84.801 E33.67872
G1 X87.74 Y84.251 E33.68805
G1 X87.859 Y83.713 E33.69738
G1 X88.055 Y83.198 E33.70671
G1 X88.323 Y82.717 E33.71603
G1 X88.657 Y82.279 E33.72536
G1 X89.052 Y81.895 E33.73468
G1 X89.498 Y81.571 E33.74402
G1 X89.986 Y81.316 E33.75334
G1 X90.506 Y81.133 E33.76267
G1 X91.047 Y81.028 E33.772
G1 X91.5 Y81.001 E33.77968
G1 X141.499 Y81.001 E34.62614
G1 X142.049 Y81.041 E34.63548
G1 X142.587 Y81.16 E34.6448
G1 X143.102 Y81.356 E34.65413
G1 X143.583 Y81.624 E34.66346
G1 X144.021 Y81.958 E34.67278
G1 X144.405 Y82.353 E34.68211
G1 X144.729 Y82.799 E34.69144
G1 X144.984 Y83.287 E34.70076
G1 X145.167 Y83.807 E34.71009
G1 X145.272 Y84.348 E34.71942
G1 X145.299 Y84.801 E34.72711
G1 X145.299 Y134.8 E35.57356
G1 X145.259 Y135.35 E35.5829
G1 X145.14 Y135.888 E35.59223
G1 X144.944 Y136.403 E35.60156
G1 X144.676 Y136.884 E35.61088
G1 X144.342 Y137.322 E35.6202
G1 X143.947 Y137.706 E35.62953
G1 X143.501 Y138.03 E35.63886
M204 S625
M205 X6
G0 F5000 X143.119 Y137.789
M204 S500
M205 X5
G1 F1200 X142.644 Y138.002 E35.64768
G1 X142.141 Y138.139 E35.6565
G1 X141.499 Y138.2 E35.66742
G1 X91.5 Y138.2 E36.51388
G1 X90.98 Y138.16 E36.52271
