;START_OF_HEADER
;HEADER_VERSION:0.1
;FLAVOR:Griffin
;GENERATOR.NAME:Cura_SteamEngine
;GENERATOR.VERSION:2.5.0
;GENERATOR.BUILD_DATE:2017-04-19
;TARGET_MACHINE.NAME:Ultimaker 3
;EXTRUDER_TRAIN.0.INITIAL_TEMPERATURE:250
;EXTRUDER_TRAIN.0.MATERIAL.VOLUME_USED:1139
;EXTRUDER_TRAIN.0.MATERIAL.GUID:28fb4162-db74-49e1-9008-d05f1e8bef5c
;EXTRUDER_TRAIN.0.NOZZLE.DIAMETER:0.4
;BUILD_PLATE.INITIAL_TEMPERATURE:55
;PRINT.TIME:2562
;PRINT.SIZE.MIN.X:9
;PRINT.SIZE.MIN.Y:6
;PRINT.SIZE.MIN.Z:0.27
;PRINT.SIZE.MAX.X:131.549
;PRINT.SIZE.MAX.Y:119.963
;PRINT.SIZE.MAX.Z:16.07
;END_OF_HEADER
;Generated with Cura_SteamEngine 2.5.0

T0
G92 E0

M109 S250
G0 F15000 X9 Y6 Z2
G280
G1 F1500 E-8
;LAYER_COUNT:317
;LAYER:0
M107
M204 S625
M205 X6
G0 F4285.7 X127.319 Y115.355 Z0.27
M204 S500
M205 X5
;TYPE:SKIRT
G1 F1500 E0
G1 F1200 X126.659 Y115.998 E0.0156
G1 X126.058 Y116.52 E0.02908
G1 X125.324 Y117.088 E0.04479
G1 X124.658 Y117.544 E0.05845
G1 X123.868 Y118.021 E0.07408
G1 X123.167 Y118.392 E0.0875
G1 X122.327 Y118.777 E0.10315
G1 X121.574 Y119.071 E0.11683
G1 X120.694 Y119.357 E0.1325
G1 X119.928 Y119.559 E0.14591
G1 X119.02 Y119.744 E0.1616
G1 X118.236 Y119.858 E0.17501
G1 X117.316 Y119.939 E0.19064
G1 X116.505 Y119.963 E0.20438
G1 X115.582 Y119.937 E0.22001
G1 X114.796 Y119.871 E0.23337
G1 X113.879 Y119.741 E0.24904
G1 X113.088 Y119.581 E0.26271
G1 X112.195 Y119.347 E0.27834
G1 X111.425 Y119.097 E0.29204
G1 X110.561 Y118.76 E0.30774
G1 X109.842 Y118.432 E0.32112
G1 X109.026 Y118.002 E0.33674
G1 X108.347 Y117.594 E0.35015
G1 X107.581 Y117.072 E0.36584
G1 X106.947 Y116.584 E0.37938
G1 X106.249 Y115.981 E0.395
G1 X105.676 Y115.426 E0.4085
G1 X105.048 Y114.744 E0.4242
G1 X104.533 Y114.116 E0.43795
G1 X103.989 Y113.367 E0.45362
G1 X103.561 Y112.701 E0.46702
G1 X103.102 Y111.89 E0.4828
G1 X102.749 Y111.174 E0.49631
G1 X102.39 Y110.327 E0.51189
G1 X102.12 Y109.572 E0.52546
G1 X101.86 Y108.689 E0.54105
G1 X101.679 Y107.913 E0.55454
G1 X101.52 Y107 E0.57023
G1 X101.428 Y106.209 E0.58371
G1 X101.374 Y105.288 E0.59933
G1 X101.373 Y104.484 E0.61294
G1 X101.425 Y103.561 E0.62859
G1 X101.514 Y102.774 E0.642
G1 X101.67 Y101.863 E0.65764
G1 X101.851 Y101.079 E0.67127
G1 X102.111 Y100.19 E0.68695
G1 X102.359 Y99.484 E0.69961
G1 X102.525 Y99.114 E0.70648
G1 X103.247 Y97.617 E0.73462
G1 X103.608 Y96.962 E0.74728
G1 X104.036 Y96.348 E0.75995
G1 X104.527 Y95.784 E0.77261
G1 X105.076 Y95.276 E0.78527
G1 X105.676 Y94.829 E0.79794
G1 X106.32 Y94.449 E0.8106
G1 X107.001 Y94.139 E0.82327
G1 X107.407 Y93.995 E0.83056
G1 X109.044 Y93.468 E0.85967
G1 X109.767 Y93.277 E0.87233
G1 X110.507 Y93.164 E0.88501
G1 X111.254 Y93.131 E0.89766
G1 X112.001 Y93.178 E0.91034
G1 X112.466 Y93.258 E0.91832
G1 X112.876 Y92.822 E0.92846
G1 X113.443 Y92.334 E0.94112
G1 X114.06 Y91.91 E0.95379
G1 X114.718 Y91.554 E0.96646
G1 X115.485 Y91.245 E0.98046
G1 X117.163 Y90.681 E1.01043
G1 X117.884 Y90.481 E1.0231
G1 X118.622 Y90.359 E1.03576
G1 X119.369 Y90.316 E1.04843
G1 X120.116 Y90.353 E1.06109
G1 X120.855 Y90.47 E1.07375
G1 X121.577 Y90.665 E1.08642
G1 X122.297 Y90.947 E1.09951
G1 X123.137 Y91.33 E1.11514
G1 X123.844 Y91.703 E1.12867
G1 X124.636 Y92.18 E1.14432
G1 X125.301 Y92.634 E1.15795
G1 X126.036 Y93.201 E1.17367
G1 X126.626 Y93.71 E1.18686
G1 X127.289 Y94.351 E1.20247
G1 X127.844 Y94.955 E1.21636
G1 X128.429 Y95.671 E1.23201
G1 X128.891 Y96.307 E1.24532
G1 X129.392 Y97.084 E1.26097
G1 X129.785 Y97.777 E1.27446
G1 X130.195 Y98.607 E1.29013
G1 X130.508 Y99.345 E1.3037
G1 X130.821 Y100.218 E1.3194
G1 X131.048 Y100.986 E1.33296
G1 X131.258 Y101.884 E1.34857
G1 X131.396 Y102.676 E1.36218
G1 X131.502 Y103.595 E1.37785
G1 X131.548 Y104.389 E1.39131
G1 X131.549 Y105.315 E1.40699
G1 X131.505 Y106.109 E1.42045
G1 X131.401 Y107.029 E1.43612
G1 X131.263 Y107.828 E1.44985
G1 X131.054 Y108.727 E1.46548
G1 X130.831 Y109.489 E1.47892
G1 X130.521 Y110.36 E1.49457
G1 X130.211 Y111.095 E1.50807
G1 X129.804 Y111.925 E1.52372
G1 X129.413 Y112.619 E1.53721
G1 X128.914 Y113.398 E1.55287
G1 X128.446 Y114.044 E1.56638
G1 X127.86 Y114.763 E1.58208
G1 X127.319 Y115.355 E1.59566
M204 S625
M205 X6
G0 F4285.7 X127.04 Y115.068
M204 S500
M205 X5
G1 F1200 X126.38 Y115.711 E1.61126
G1 X125.813 Y116.204 E1.62398
G1 X125.079 Y116.772 E1.63969
G1 X124.451 Y117.202 E1.65257
G1 X123.661 Y117.679 E1.6682
G1 X123 Y118.029 E1.68086
G1 X122.16 Y118.414 E1.6965
G1 X121.45 Y118.691 E1.7094
G1 X120.57 Y118.977 E1.72507
G1 X119.848 Y119.167 E1.73771
G1 X118.94 Y119.352 E1.7534
G1 X118.201 Y119.46 E1.76604
G1 X117.281 Y119.541 E1.78168
G1 X116.516 Y119.563 E1.79463
G1 X115.593 Y119.537 E1.81026
G1 X114.853 Y119.475 E1.82284
G1 X113.936 Y119.345 E1.83852
G1 X113.189 Y119.194 E1.85142
G1 X112.296 Y118.96 E1.86705
G1 X111.571 Y118.725 E1.87995
G1 X110.707 Y118.388 E1.89565
G1 X110.028 Y118.078 E1.90829
G1 X109.212 Y117.648 E1.9239
G1 X108.572 Y117.263 E1.93654
G1 X107.806 Y116.741 E1.95224
G1 X107.208 Y116.281 E1.96501
G1 X106.51 Y115.678 E1.98063
G1 X105.97 Y115.155 E1.99335
G1 X105.342 Y114.473 E2.00905
G1 X104.857 Y113.881 E2.022
G1 X104.313 Y113.132 E2.03768
G1 X103.909 Y112.504 E2.05032
G1 X103.45 Y111.693 E2.06609
G1 X103.117 Y111.018 E2.07884
G1 X102.758 Y110.171 E2.09441
G1 X102.504 Y109.459 E2.10721
G1 X102.244 Y108.576 E2.12279
G1 X102.073 Y107.844 E2.13552
G1 X101.914 Y106.931 E2.15121
G1 X101.827 Y106.185 E2.16392
G1 X101.773 Y105.264 E2.17954
G1 X101.772 Y104.507 E2.19236
G1 X101.824 Y103.584 E2.20801
G1 X101.909 Y102.841 E2.22067
G1 X102.065 Y101.93 E2.23631
G1 X102.235 Y101.191 E2.24915
G1 X102.495 Y100.302 E2.26483
G1 X102.885 Y99.288 E2.28323
G1 X103.607 Y97.791 E2.31136
G1 X103.958 Y97.155 E2.32366
G1 X104.377 Y96.562 E2.33595
G1 X104.859 Y96.018 E2.34826
G1 X105.397 Y95.53 E2.36055
G1 X105.986 Y95.105 E2.37285
G1 X106.618 Y94.746 E2.38516
G1 X107.529 Y94.376 E2.4018
G1 X109.166 Y93.849 E2.43092
G1 X109.869 Y93.664 E2.44322
G1 X110.588 Y93.558 E2.45553
G1 X111.314 Y93.532 E2.46783
G1 X112.038 Y93.586 E2.48012
G1 X112.624 Y93.695 E2.49021
G1 X112.937 Y93.327 E2.49839
G1 X113.466 Y92.829 E2.51069
G1 X114.047 Y92.393 E2.52298
G1 X114.672 Y92.023 E2.53528
G1 X115.612 Y91.624 E2.55257
G1 X117.29 Y91.06 E2.58254
G1 X117.99 Y90.867 E2.59483
G1 X118.708 Y90.752 E2.60714
G1 X119.433 Y90.716 E2.61943
G1 X120.158 Y90.761 E2.63173
G1 X120.874 Y90.884 E2.64403
G1 X121.572 Y91.086 E2.65633
G1 X122.131 Y91.311 E2.66653
G1 X122.971 Y91.694 E2.68216
G1 X123.638 Y92.045 E2.69492
G1 X124.43 Y92.522 E2.71057
G1 X125.056 Y92.95 E2.72341
G1 X125.791 Y93.517 E2.73912
G1 X126.348 Y93.998 E2.75158
G1 X127.011 Y94.639 E2.7672
G1 X127.534 Y95.208 E2.78028
G1 X128.119 Y95.924 E2.79593
G1 X128.555 Y96.523 E2.80848
G1 X129.056 Y97.3 E2.82413
G1 X129.426 Y97.954 E2.83685
G1 X129.836 Y98.784 E2.85252
G1 X130.132 Y99.48 E2.86532
G1 X130.445 Y100.353 E2.88103
G1 X130.659 Y101.077 E2.89381
G1 X130.869 Y101.975 E2.90942
G1 X130.999 Y102.722 E2.92226
G1 X131.105 Y103.641 E2.93792
G1 X131.148 Y104.39 E2.95062
G1 X131.149 Y105.316 E2.96629
G1 X131.107 Y106.064 E2.97898
G1 X131.003 Y106.984 E2.99465
G1 X130.874 Y107.738 E3.0076
G1 X130.665 Y108.637 E3.02323
G1 X130.454 Y109.355 E3.0359
G1 X130.144 Y110.226 E3.05155
G1 X129.852 Y110.919 E3.06428
G1 X129.445 Y111.749 E3.07993
G1 X129.077 Y112.403 E3.09263
G1 X128.578 Y113.182 E3.1083
G1 X128.136 Y113.792 E3.12105
G1 X127.55 Y114.511 E3.13675
G1 X127.04 Y115.068 E3.14954
M204 S625
M205 X6
G0 F4285.7 X126.76 Y114.782
M204 S500
M205 X5
G1 F1200 X126.1 Y115.425 E3.16514
G1 X125.568 Y115.887 E3.17707
G1 X124.834 Y116.455 E3.19278
G1 X124.245 Y116.86 E3.20488
G1 X123.455 Y117.337 E3.2205
G1 X122.833 Y117.665 E3.23241
G1 X121.993 Y118.05 E3.24805
G1 X121.326 Y118.31 E3.26017
G1 X120.446 Y118.596 E3.27584
G1 X119.768 Y118.775 E3.28771
G1 X118.86 Y118.96 E3.30339
G1 X118.166 Y119.061 E3.31527
G1 X117.246 Y119.142 E3.3309
G1 X116.527 Y119.164 E3.34308
G1 X115.604 Y119.138 E3.35871
G1 X114.909 Y119.079 E3.37052
G1 X113.992 Y118.949 E3.3862
G1 X113.29 Y118.808 E3.39832
G1 X112.397 Y118.574 E3.41395
G1 X111.716 Y118.352 E3.42608
G1 X110.852 Y118.015 E3.44178
G1 X110.215 Y117.724 E3.45363
G1 X109.399 Y117.294 E3.46925
G1 X108.798 Y116.932 E3.48113
G1 X108.032 Y116.41 E3.49682
G1 X107.47 Y115.979 E3.50881
G1 X106.772 Y115.376 E3.52443
G1 X106.264 Y114.884 E3.5364
G1 X105.636 Y114.202 E3.55209
G1 X105.181 Y113.645 E3.56427
G1 X104.637 Y112.896 E3.57994
G1 X104.257 Y112.307 E3.59181
G1 X103.798 Y111.496 E3.60758
G1 X103.486 Y110.862 E3.61955
G1 X103.127 Y110.015 E3.63512
G1 X102.887 Y109.346 E3.64715
G1 X102.627 Y108.463 E3.66274
G1 X102.467 Y107.776 E3.67468
G1 X102.308 Y106.863 E3.69037
G1 X102.227 Y106.162 E3.70231
G1 X102.173 Y105.241 E3.71793
G1 X102.172 Y104.529 E3.72999
G1 X102.224 Y103.606 E3.74564
G1 X102.303 Y102.909 E3.75751
G1 X102.459 Y101.998 E3.77316
G1 X102.619 Y101.304 E3.78522
G1 X102.879 Y100.415 E3.8009
G1 X103.246 Y99.462 E3.81819
G1 X103.968 Y97.965 E3.84632
G1 X104.309 Y97.349 E3.85824
G1 X104.718 Y96.776 E3.87016
G1 X105.189 Y96.253 E3.88208
G1 X105.717 Y95.787 E3.894
G1 X106.294 Y95.383 E3.90592
G1 X106.912 Y95.048 E3.91783
G1 X107.652 Y94.756 E3.93129
G1 X109.289 Y94.229 E3.96041
G1 X109.97 Y94.052 E3.97232
G1 X110.667 Y93.953 E3.98424
G1 X111.371 Y93.934 E3.99616
G1 X112.072 Y93.994 E4.00807
G1 X112.762 Y94.134 E4.01999
G1 X112.782 Y94.141 E4.02035
G1 X113.03 Y93.819 E4.02723
G1 X113.52 Y93.314 E4.03914
G1 X114.065 Y92.868 E4.05106
G1 X114.657 Y92.487 E4.06298
G1 X115.288 Y92.175 E4.0749
G1 X115.74 Y92.003 E4.08309
G1 X117.418 Y91.439 E4.11306
G1 X118.097 Y91.253 E4.12498
G1 X118.792 Y91.145 E4.13688
G1 X119.496 Y91.117 E4.14881
G1 X120.198 Y91.168 E4.16073
G1 X120.89 Y91.299 E4.17265
G1 X121.562 Y91.508 E4.18456
G1 X121.965 Y91.675 E4.19195
G1 X122.805 Y92.058 E4.20758
G1 X123.432 Y92.388 E4.21957
G1 X124.224 Y92.865 E4.23523
G1 X124.812 Y93.267 E4.24728
G1 X125.547 Y93.834 E4.263
G1 X126.069 Y94.286 E4.27469
G1 X126.732 Y94.927 E4.2903
G1 X127.224 Y95.461 E4.30259
G1 X127.809 Y96.177 E4.31825
G1 X128.219 Y96.74 E4.33004
G1 X128.72 Y97.517 E4.34569
G1 X129.068 Y98.131 E4.35764
G1 X129.478 Y98.961 E4.37331
G1 X129.755 Y99.615 E4.38533
G1 X130.068 Y100.488 E4.40104
G1 X130.269 Y101.168 E4.41304
G1 X130.479 Y102.066 E4.42865
G1 X130.601 Y102.768 E4.44072
G1 X130.707 Y103.687 E4.45638
G1 X130.748 Y104.39 E4.4683
G1 X130.749 Y105.316 E4.48398
G1 X130.71 Y106.019 E4.49589
G1 X130.606 Y106.939 E4.51157
G1 X130.484 Y107.647 E4.52373
G1 X130.275 Y108.546 E4.53936
G1 X130.077 Y109.221 E4.55127
G1 X129.767 Y110.092 E4.56692
G1 X129.493 Y110.743 E4.57888
G1 X129.086 Y111.573 E4.59453
G1 X128.74 Y112.187 E4.60646
G1 X128.241 Y112.966 E4.62212
G1 X127.826 Y113.539 E4.6341
G1 X127.24 Y114.258 E4.6498
G1 X126.76 Y114.782 E4.66183
M204 S625
M205 X6
G0 F4285.7 X126.481 Y114.495
M204 S500
M205 X5
G1 F1200 X125.821 Y115.138 E4.67743
G1 X125.324 Y115.571 E4.68859
G1 X124.59 Y116.139 E4.7043
G1 X124.038 Y116.517 E4.71563
G1 X123.248 Y116.994 E4.73125
G1 X122.667 Y117.302 E4.74238
G1 X121.827 Y117.687 E4.75803
G1 X121.203 Y117.93 E4.76936
G1 X120.323 Y118.216 E4.78503
G1 X119.688 Y118.383 E4.79614
G1 X118.78 Y118.568 E4.81183
G1 X118.131 Y118.663 E4.82294
G1 X117.211 Y118.744 E4.83857
G1 X116.539 Y118.764 E4.84995
G1 X115.616 Y118.738 E4.86559
G1 X114.965 Y118.683 E4.87665
G1 X114.048 Y118.553 E4.89233
G1 X113.392 Y118.421 E4.90365
G1 X112.499 Y118.187 E4.91928
G1 X111.861 Y117.98 E4.93064
G1 X110.997 Y117.643 E4.94634
G1 X110.401 Y117.37 E4.95744
G1 X109.585 Y116.94 E4.97305
G1 X109.023 Y116.602 E4.98415
G1 X108.257 Y116.08 E4.99985
G1 X107.731 Y115.676 E5.01107
G1 X107.033 Y115.073 E5.02669
G1 X106.558 Y114.613 E5.03788
G1 X105.93 Y113.931 E5.05358
G1 X105.504 Y113.41 E5.06497
G1 X104.96 Y112.661 E5.08065
G1 X104.605 Y112.11 E5.09174
G1 X104.146 Y111.299 E5.10752
G1 X103.854 Y110.705 E5.11872
G1 X103.495 Y109.858 E5.1343
G1 X103.271 Y109.233 E5.14554
G1 X103.011 Y108.35 E5.16112
G1 X102.861 Y107.707 E5.1723
G1 X102.702 Y106.794 E5.18799
G1 X102.626 Y106.138 E5.19917
G1 X102.572 Y105.217 E5.21479
G1 X102.571 Y104.552 E5.22605
G1 X102.623 Y103.629 E5.2417
G1 X102.697 Y102.976 E5.25282
G1 X102.853 Y102.065 E5.26847
G1 X103.003 Y101.416 E5.27975
G1 X103.263 Y100.527 E5.29543
G1 X103.606 Y99.635 E5.31161
G1 X104.328 Y98.138 E5.33974
G1 X104.659 Y97.544 E5.35125
G1 X105.058 Y96.992 E5.36279
G1 X105.518 Y96.49 E5.37431
G1 X106.035 Y96.046 E5.38585
G1 X106.599 Y95.666 E5.39736
G1 X107.205 Y95.354 E5.4089
G1 X107.775 Y95.137 E5.41923
G1 X109.412 Y94.61 E5.44834
G1 X110.071 Y94.44 E5.45986
G1 X110.746 Y94.348 E5.4714
G1 X111.426 Y94.336 E5.48291
G1 X112.104 Y94.404 E5.49445
G1 X112.769 Y94.55 E5.50597
G1 X112.937 Y94.609 E5.50899
G1 X113.155 Y94.296 E5.51544
G1 X113.606 Y93.787 E5.52696
G1 X114.114 Y93.333 E5.53849
G1 X114.672 Y92.943 E5.55002
G1 X115.271 Y92.62 E5.56154
G1 X115.867 Y92.382 E5.5724
G1 X117.545 Y91.818 E5.60237
G1 X118.202 Y91.64 E5.6139
G1 X118.876 Y91.539 E5.62543
G1 X119.556 Y91.518 E5.63695
G1 X120.234 Y91.577 E5.64847
G1 X120.901 Y91.716 E5.66001
G1 X121.799 Y92.039 E5.67616
G1 X122.639 Y92.422 E5.69179
G1 X123.225 Y92.731 E5.70301
G1 X124.017 Y93.208 E5.71866
G1 X124.568 Y93.584 E5.72995
G1 X125.303 Y94.151 E5.74567
G1 X125.791 Y94.573 E5.75659
G1 X126.454 Y95.214 E5.7722
G1 X126.914 Y95.714 E5.78371
G1 X127.499 Y96.43 E5.79936
G1 X127.883 Y96.957 E5.8104
G1 X128.384 Y97.734 E5.82605
G1 X128.709 Y98.308 E5.83722
G1 X129.119 Y99.138 E5.85289
G1 X129.379 Y99.75 E5.86415
G1 X129.692 Y100.623 E5.87985
G1 X129.88 Y101.259 E5.89107
G1 X130.09 Y102.157 E5.90669
G1 X130.204 Y102.813 E5.91796
G1 X130.31 Y103.732 E5.93362
G1 X130.348 Y104.391 E5.9448
G1 X130.349 Y105.317 E5.96047
G1 X130.312 Y105.975 E5.97163
G1 X130.208 Y106.895 E5.9873
G1 X130.094 Y107.556 E5.99866
G1 X129.885 Y108.455 E6.01429
G1 X129.7 Y109.087 E6.02543
G1 X129.39 Y109.958 E6.04109
G1 X129.134 Y110.567 E6.05227
G1 X128.727 Y111.397 E6.06792
G1 X128.403 Y111.971 E6.07908
G1 X127.904 Y112.75 E6.09474
G1 X127.516 Y113.286 E6.10594
G1 X126.93 Y114.005 E6.12165
G1 X126.481 Y114.495 E6.1329
M204 S625
M205 X6
G0 F4285.7 X126.202 Y114.209
M204 S500
M205 X5
G1 F1200 X125.542 Y114.852 E6.1485
G1 X125.079 Y115.255 E6.15889
G1 X124.345 Y115.823 E6.1746
G1 X123.831 Y116.175 E6.18515
G1 X123.041 Y116.652 E6.20077
G1 X122.5 Y116.938 E6.21113
G1 X121.66 Y117.323 E6.22677
G1 X121.079 Y117.55 E6.23733
G1 X120.199 Y117.836 E6.253
G1 X119.608 Y117.991 E6.26334
G1 X118.7 Y118.176 E6.27903
G1 X118.096 Y118.264 E6.28936
G1 X117.176 Y118.345 E6.305
G1 X116.55 Y118.364 E6.3156
G1 X115.627 Y118.338 E6.33123
G1 X115.021 Y118.287 E6.34153
G1 X114.104 Y118.157 E6.35721
G1 X113.493 Y118.034 E6.36776
G1 X112.6 Y117.8 E6.38339
G1 X112.007 Y117.607 E6.39395
G1 X111.143 Y117.27 E6.40965
G1 X110.588 Y117.016 E6.41998
G1 X109.772 Y116.586 E6.43559
G1 X109.248 Y116.271 E6.44595
G1 X108.482 Y115.749 E6.46164
G1 X107.993 Y115.373 E6.47208
G1 X107.295 Y114.77 E6.4877
G1 X106.853 Y114.342 E6.49811
G1 X106.225 Y113.66 E6.51381
G1 X105.828 Y113.175 E6.52442
G1 X105.284 Y112.426 E6.54009
G1 X104.953 Y111.913 E6.55043
G1 X104.494 Y111.102 E6.5662
G1 X104.222 Y110.549 E6.57664
G1 X103.863 Y109.702 E6.59221
G1 X103.655 Y109.12 E6.60267
G1 X103.395 Y108.237 E6.61826
G1 X103.255 Y107.638 E6.62867
G1 X103.096 Y106.725 E6.64436
G1 X103.025 Y106.115 E6.65476
G1 X102.971 Y105.194 E6.67038
G1 X102.971 Y104.574 E6.68087
G1 X103.023 Y103.651 E6.69652
G1 X103.091 Y103.044 E6.70686
G1 X103.247 Y102.133 E6.72251
G1 X103.387 Y101.528 E6.73302
G1 X103.647 Y100.639 E6.7487
G1 X103.966 Y99.809 E6.76376
G1 X104.688 Y98.312 E6.79189
G1 X105.009 Y97.739 E6.80301
G1 X105.397 Y97.209 E6.81413
G1 X105.847 Y96.73 E6.82526
G1 X106.351 Y96.309 E6.83638
G1 X106.903 Y95.952 E6.84751
G1 X107.494 Y95.666 E6.85862
G1 X107.897 Y95.518 E6.86589
G1 X109.534 Y94.991 E6.895
G1 X110.171 Y94.828 E6.90614
G1 X110.822 Y94.743 E6.91725
G1 X111.479 Y94.739 E6.92837
G1 X112.132 Y94.814 E6.9395
G1 X112.77 Y94.968 E6.95061
G1 X113.102 Y95.092 E6.95661
G1 X113.311 Y94.756 E6.96331
G1 X113.722 Y94.244 E6.97443
G1 X114.194 Y93.786 E6.98556
G1 X114.717 Y93.389 E6.99668
G1 X115.284 Y93.058 E7.00779
