;START_OF_HEADER
;HEADER_VERSION:0.1
;FLAVOR:Griffin
;GENERATOR.NAME:Cura_SteamEngine
;GENERATOR.VERSION:2.5.0
;GENERATOR.BUILD_DATE:2017-04-19
;TARGET_MACHINE.NAME:Ultimaker 3
;EXTRUDER_TRAIN.0.INITIAL_TEMPERATURE:250
;EXTRUDER_TRAIN.0.MATERIAL.VOLUME_USED:1549
;EXTRUDER_TRAIN.0.MATERIAL.GUID:28fb4162-db74-49e1-9008-d05f1e8bef5c
;EXTRUDER_TRAIN.0.NOZZLE.DIAMETER:0.4
;BUILD_PLATE.INITIAL_TEMPERATURE:55
;PRINT.TIME:2282
;PRINT.SIZE.MIN.X:9
;PRINT.SIZE.MIN.Y:6
;PRINT.SIZE.MIN.Z:0.27
;PRINT.SIZE.MAX.X:187
;PRINT.SIZE.MAX.Y:114.749
;PRINT.SIZE.MAX.Z:15.97
;END_OF_HEADER
;Generated with Cura_SteamEngine 2.5.0

T0
G92 E0

M109 S250
G0 F15000 X9 Y6 Z2
G280
G1 F1500 E-8
;LAYER_COUNT:158
;LAYER:0
M107
M204 S625
M205 X6
G0 F4285.7 X182.692 Y114.211 Z0.27
M204 S500
M205 X5
;TYPE:SKIRT
G1 F1500 E0
G1 F1200 X181.987 Y114.461 E0.01266
G1 X181.259 Y114.635 E0.02534
G1 X180.517 Y114.73 E0.038
G1 X180 Y114.749 E0.04676
G1 X53 Y114.749 E2.1968
G1 X52.253 Y114.709 E2.20947
G1 X51.515 Y114.59 E2.22212
G1 X50.793 Y114.392 E2.2348
G1 X50.097 Y114.119 E2.24746
G1 X49.434 Y113.772 E2.26012
G1 X48.811 Y113.357 E2.2728
G1 X48.237 Y112.878 E2.28545
G1 X47.716 Y112.341 E2.29812
G1 X47.257 Y111.751 E2.31078
G1 X46.862 Y111.115 E2.32345
G1 X46.538 Y110.441 E2.33611
G1 X46.288 Y109.736 E2.34877
G1 X46.114 Y109.008 E2.36145
G1 X46.019 Y108.266 E2.37411
G1 X46 Y107.749 E2.38287
G1 X46 Y107.25 E2.39132
G1 X46.04 Y106.503 E2.40398
G1 X46.159 Y105.765 E2.41664
G1 X46.357 Y105.043 E2.42931
G1 X46.63 Y104.347 E2.44197
G1 X46.977 Y103.684 E2.45464
G1 X47.392 Y103.061 E2.46731
G1 X47.871 Y102.487 E2.47997
G1 X48.408 Y101.966 E2.49263
G1 X48.998 Y101.507 E2.50529
G1 X49.634 Y101.112 E2.51796
G1 X50.308 Y100.788 E2.53062
G1 X51.013 Y100.538 E2.54329
G1 X51.741 Y100.364 E2.55596
G1 X52.483 Y100.269 E2.56862
G1 X53 Y100.25 E2.57738
G1 X180 Y100.25 E4.72743
G1 X180.747 Y100.29 E4.74009
G1 X181.485 Y100.409 E4.75275
G1 X182.207 Y100.607 E4.76542
G1 X182.903 Y100.88 E4.77808
G1 X183.566 Y101.227 E4.79075
G1 X184.189 Y101.642 E4.80342
G1 X184.763 Y102.121 E4.81608
G1 X185.284 Y102.658 E4.82874
G1 X185.743 Y103.248 E4.8414
G1 X186.138 Y103.884 E4.85407
G1 X186.462 Y104.558 E4.86673
G1 X186.712 Y105.263 E4.8794
G1 X186.886 Y105.991 E4.89207
G1 X186.981 Y106.733 E4.90473
G1 X187 Y107.25 E4.91349
G1 X187 Y107.749 E4.92194
G1 X186.96 Y108.496 E4.9346
G1 X186.841 Y109.234 E4.94726
G1 X186.643 Y109.956 E4.95993
G1 X186.37 Y110.652 E4.97259
G1 X186.023 Y111.315 E4.98526
G1 X185.608 Y111.938 E4.99793
G1 X185.129 Y112.512 E5.01059
G1 X184.592 Y113.033 E5.02326
G1 X184.002 Y113.492 E5.03591
G1 X183.366 Y113.887 E5.04859
G1 X182.692 Y114.211 E5.06125
M204 S625
M205 X6
G0 F4285.7 X182.322 Y113.927
M204 S500
M205 X5
G1 F1200 X181.629 Y114.145 E5.07354
G1 X180.917 Y114.285 E5.08583
G1 X180 Y114.349 E5.10139
G1 X53 Y114.349 E7.25144
G1 X52.275 Y114.309 E7.26373
G1 X51.558 Y114.19 E7.27604
G1 X50.859 Y113.992 E7.28833
G1 X50.186 Y113.719 E7.30063
G1 X49.547 Y113.374 E7.31292
G1 X48.95 Y112.96 E7.32522
G1 X48.402 Y112.484 E7.33751
G1 X47.909 Y111.95 E7.34982
G1 X47.479 Y111.365 E7.36211
G1 X47.115 Y110.736 E7.37441
G1 X46.822 Y110.071 E7.38671
G1 X46.604 Y109.378 E7.39901
G1 X46.464 Y108.666 E7.4113
G1 X46.4 Y107.749 E7.42686
G1 X46.4 Y107.25 E7.43531
G1 X46.44 Y106.525 E7.4476
G1 X46.559 Y105.808 E7.4599
G1 X46.757 Y105.109 E7.4722
G1 X47.03 Y104.436 E7.4845
G1 X47.375 Y103.797 E7.49679
G1 X47.789 Y103.2 E7.50909
G1 X48.265 Y102.652 E7.52138
G1 X48.799 Y102.159 E7.53368
G1 X49.384 Y101.729 E7.54598
G1 X50.013 Y101.365 E7.55828
G1 X50.678 Y101.072 E7.57058
G1 X51.371 Y100.854 E7.58288
G1 X52.083 Y100.714 E7.59516
G1 X53 Y100.65 E7.61073
G1 X180 Y100.65 E9.76077
G1 X180.725 Y100.69 E9.77307
G1 X181.442 Y100.809 E9.78537
G1 X182.141 Y101.007 E9.79767
G1 X182.814 Y101.28 E9.80996
G1 X183.453 Y101.625 E9.82226
G1 X184.05 Y102.039 E9.83456
G1 X184.598 Y102.515 E9.84685
G1 X185.091 Y103.049 E9.85915
G1 X185.521 Y103.634 E9.87144
G1 X185.885 Y104.263 E9.88374
G1 X186.178 Y104.928 E9.89605
G1 X186.396 Y105.621 E9.90835
G1 X186.536 Y106.333 E9.92063
G1 X186.6 Y107.25 E9.93619
G1 X186.6 Y107.749 E9.94464
G1 X186.56 Y108.474 E9.95693
G1 X186.441 Y109.191 E9.96924
G1 X186.243 Y109.89 E9.98154
G1 X185.97 Y110.563 E9.99383
G1 X185.625 Y111.202 E10.00613
G1 X185.211 Y111.799 E10.01843
G1 X184.735 Y112.347 E10.03071
G1 X184.201 Y112.84 E10.04302
G1 X183.616 Y113.27 E10.05531
G1 X182.987 Y113.634 E10.06761
G1 X182.322 Y113.927 E10.07992
M204 S625
M205 X6
G0 F4285.7 X181.957 Y113.632
M204 S500
M205 X5
G1 F1200 X181.277 Y113.816 E10.09184
G1 X180.581 Y113.922 E10.10376
G1 X180 Y113.949 E10.11361
G1 X53 Y113.949 E12.26365
G1 X52.297 Y113.909 E12.27557
G1 X51.603 Y113.79 E12.28749
G1 X50.928 Y113.592 E12.2994
G1 X50.279 Y113.32 E12.31132
G1 X49.665 Y112.975 E12.32324
G1 X49.094 Y112.564 E12.33515
G1 X48.573 Y112.09 E12.34707
G1 X48.109 Y111.56 E12.359
G1 X47.709 Y110.981 E12.37091
G1 X47.377 Y110.36 E12.38284
G1 X47.117 Y109.706 E12.39475
G1 X46.933 Y109.026 E12.40668
G1 X46.827 Y108.33 E12.4186
G1 X46.8 Y107.749 E12.42844
G1 X46.8 Y107.25 E12.43689
G1 X46.84 Y106.547 E12.44881
G1 X46.959 Y105.853 E12.46073
G1 X47.157 Y105.178 E12.47264
G1 X47.429 Y104.529 E12.48455
G1 X47.774 Y103.915 E12.49648
G1 X48.185 Y103.344 E12.50839
G1 X48.659 Y102.823 E12.52031
G1 X49.189 Y102.359 E12.53224
G1 X49.768 Y101.959 E12.54415
G1 X50.389 Y101.627 E12.55607
G1 X51.043 Y101.367 E12.56799
G1 X51.723 Y101.183 E12.57991
G1 X52.419 Y101.077 E12.59183
G1 X53 Y101.05 E12.60168
G1 X180 Y101.05 E14.75172
G1 X180.703 Y101.09 E14.76365
G1 X181.397 Y101.209 E14.77557
G1 X182.072 Y101.407 E14.78747
G1 X182.721 Y101.679 E14.79939
G1 X183.335 Y102.024 E14.81131
G1 X183.906 Y102.435 E14.82322
G1 X184.427 Y102.909 E14.83515
G1 X184.891 Y103.439 E14.84707
G1 X185.291 Y104.018 E14.85899
G1 X185.623 Y104.639 E14.87091
G1 X185.883 Y105.293 E14.88282
G1 X186.067 Y105.973 E14.89475
G1 X186.173 Y106.669 E14.90667
G1 X186.2 Y107.25 E14.91651
G1 X186.2 Y107.749 E14.92496
G1 X186.16 Y108.452 E14.93688
G1 X186.041 Y109.146 E14.9488
G1 X185.843 Y109.821 E14.96071
G1 X185.571 Y110.47 E14.97262
G1 X185.226 Y111.084 E14.98455
G1 X184.815 Y111.655 E14.99646
G1 X184.341 Y112.176 E15.00838
G1 X183.811 Y112.64 E15.02031
G1 X183.232 Y113.04 E15.03222
G1 X182.611 Y113.372 E15.04414
G1 X181.957 Y113.632 E15.05606
M204 S625
M205 X6
G0 F4285.7 X181.596 Y113.325
M204 S500
M205 X5
G1 F1200 X180.931 Y113.474 E15.06759
G1 X180 Y113.549 E15.08341
G1 X53 Y113.549 E17.23345
G1 X52.32 Y113.509 E17.24499
G1 X51.65 Y113.39 E17.25651
G1 X50.998 Y113.193 E17.26804
G1 X50.374 Y112.921 E17.27956
G1 X49.786 Y112.577 E17.29109
G1 X49.242 Y112.167 E17.30263
G1 X48.751 Y111.696 E17.31414
G1 X48.317 Y111.171 E17.32568
G1 X47.948 Y110.599 E17.3372
G1 X47.649 Y109.987 E17.34873
G1 X47.424 Y109.345 E17.36025
G1 X47.275 Y108.68 E17.37179
G1 X47.2 Y107.749 E17.3876
G1 X47.2 Y107.25 E17.39605
G1 X47.24 Y106.57 E17.40758
G1 X47.359 Y105.9 E17.4191
G1 X47.556 Y105.248 E17.43063
G1 X47.828 Y104.624 E17.44215
G1 X48.172 Y104.036 E17.45369
G1 X48.582 Y103.492 E17.46522
G1 X49.053 Y103.001 E17.47674
G1 X49.578 Y102.567 E17.48827
G1 X50.15 Y102.198 E17.49979
G1 X50.762 Y101.899 E17.51132
G1 X51.404 Y101.674 E17.52284
G1 X52.069 Y101.525 E17.53438
G1 X53 Y101.45 E17.55019
G1 X180 Y101.45 E19.70024
G1 X180.68 Y101.49 E19.71177
G1 X181.35 Y101.609 E19.72329
G1 X182.002 Y101.806 E19.73482
G1 X182.626 Y102.078 E19.74634
G1 X183.214 Y102.422 E19.75788
G1 X183.758 Y102.832 E19.76941
G1 X184.249 Y103.303 E19.78093
G1 X184.683 Y103.828 E19.79246
G1 X185.052 Y104.4 E19.80398
G1 X185.351 Y105.012 E19.81551
G1 X185.576 Y105.654 E19.82703
G1 X185.725 Y106.319 E19.83857
G1 X185.8 Y107.25 E19.85438
G1 X185.8 Y107.749 E19.86283
G1 X185.76 Y108.429 E19.87436
G1 X185.641 Y109.099 E19.88588
G1 X185.444 Y109.751 E19.89741
G1 X185.172 Y110.375 E19.90894
G1 X184.828 Y110.963 E19.92047
G1 X184.418 Y111.507 E19.932
G1 X183.947 Y111.998 E19.94352
G1 X183.422 Y112.432 E19.95505
G1 X182.85 Y112.801 E19.96658
G1 X182.238 Y113.1 E19.97811
G1 X181.596 Y113.325 E19.98962
M204 S625
M205 X6
G0 F4285.7 X181.24 Y113.005
M204 S500
M205 X5
G1 F1200 X180.593 Y113.116 E20.00074
G1 X180 Y113.149 E20.01079
G1 X53 Y113.149 E22.16084
G1 X52.344 Y113.109 E22.17197
G1 X51.698 Y112.99 E22.18309
G1 X51.071 Y112.793 E22.19421
G1 X50.473 Y112.521 E22.20533
G1 X49.912 Y112.179 E22.21646
G1 X49.397 Y111.771 E22.22758
G1 X48.935 Y111.304 E22.2387
G1 X48.534 Y110.784 E22.24982
G1 X48.198 Y110.22 E22.26093
G1 X47.934 Y109.618 E22.27206
G1 X47.744 Y108.989 E22.28318
G1 X47.633 Y108.342 E22.2943
G1 X47.6 Y107.749 E22.30435
G1 X47.6 Y107.25 E22.3128
G1 X47.64 Y106.594 E22.32393
G1 X47.759 Y105.948 E22.33505
G1 X47.956 Y105.321 E22.34617
G1 X48.228 Y104.723 E22.3573
G1 X48.57 Y104.162 E22.36842
G1 X48.978 Y103.647 E22.37954
G1 X49.445 Y103.185 E22.39066
G1 X49.965 Y102.784 E22.40178
G1 X50.529 Y102.448 E22.41289
G1 X51.131 Y102.184 E22.42402
G1 X51.76 Y101.994 E22.43515
G1 X52.407 Y101.883 E22.44626
G1 X53 Y101.85 E22.45632
G1 X180 Y101.85 E24.60636
G1 X180.656 Y101.89 E24.61749
G1 X181.302 Y102.009 E24.62861
G1 X181.929 Y102.206 E24.63974
G1 X182.527 Y102.478 E24.65086
G1 X183.088 Y102.82 E24.66198
G1 X183.603 Y103.228 E24.6731
G1 X184.065 Y103.695 E24.68422
G1 X184.466 Y104.215 E24.69534
G1 X184.802 Y104.779 E24.70646
G1 X185.066 Y105.381 E24.71758
G1 X185.256 Y106.01 E24.72871
G1 X185.367 Y106.657 E24.73982
G1 X185.4 Y107.25 E24.74988
G1 X185.4 Y107.749 E24.75832
G1 X185.36 Y108.405 E24.76945
G1 X185.241 Y109.051 E24.78057
G1 X185.044 Y109.678 E24.7917
G1 X184.772 Y110.276 E24.80282
G1 X184.43 Y110.837 E24.81394
G1 X184.022 Y111.352 E24.82507
G1 X183.555 Y111.814 E24.83619
G1 X183.035 Y112.215 E24.8473
G1 X182.471 Y112.551 E24.85842
G1 X181.869 Y112.815 E24.86955
G1 X181.24 Y113.005 E24.88067
M204 S625
M205 X6
G0 F4285.7 X181.505 Y112.517
M204 S500
M205 X5
G1 F1200 X180.891 Y112.669 E24.89138
G1 X180 Y112.749 E24.90652
G1 X53 Y112.749 E27.05657
G1 X52.369 Y112.709 E27.06727
G1 X51.748 Y112.59 E27.07798
G1 X51.148 Y112.393 E27.08867
G1 X50.576 Y112.122 E27.09939
G1 X50.044 Y111.782 E27.11007
G1 X49.559 Y111.376 E27.12078
G1 X49.129 Y110.913 E27.13148
G1 X48.76 Y110.399 E27.14219
G1 X48.46 Y109.843 E27.15289
G1 X48.232 Y109.254 E27.16358
G1 X48.08 Y108.64 E27.17429
G1 X48 Y107.749 E27.18943
G1 X48 Y107.25 E27.19788
G1 X48.04 Y106.619 E27.20858
G1 X48.159 Y105.998 E27.21929
G1 X48.356 Y105.398 E27.22998
G1 X48.627 Y104.826 E27.2407
G1 X48.967 Y104.294 E27.25138
G1 X49.373 Y103.809 E27.26209
G1 X49.836 Y103.379 E27.27279
G1 X50.35 Y103.01 E27.2835
G1 X50.906 Y102.71 E27.2942
G1 X51.495 Y102.482 E27.30489
G1 X52.109 Y102.33 E27.3156
G1 X53 Y102.25 E27.33074
G1 X180 Y102.25 E29.48079
G1 X180.631 Y102.29 E29.49149
G1 X181.252 Y102.409 E29.5022
G1 X181.852 Y102.606 E29.51289
G1 X182.424 Y102.877 E29.5236
G1 X182.956 Y103.217 E29.53429
G1 X183.441 Y103.623 E29.545
G1 X183.871 Y104.086 E29.5557
G1 X184.24 Y104.6 E29.56641
G1 X184.54 Y105.156 E29.57711
G1 X184.768 Y105.745 E29.5878
G1 X184.92 Y106.359 E29.59851
G1 X185 Y107.25 E29.61365
G1 X185 Y107.749 E29.6221
G1 X184.96 Y108.38 E29.6328
G1 X184.841 Y109.001 E29.64351
G1 X184.644 Y109.601 E29.6542
G1 X184.373 Y110.173 E29.66492
G1 X184.033 Y110.705 E29.6756
G1 X183.627 Y111.19 E29.68631
G1 X183.164 Y111.62 E29.69701
G1 X182.65 Y111.989 E29.70772
G1 X182.094 Y112.289 E29.71842
G1 X181.505 Y112.517 E29.72911
M204 S625
M205 X6
G0 F4285.7 X181.146 Y112.204
M204 S500
M205 X5
G1 F1200 X180.55 Y112.316 E29.73938
G1 X180 Y112.349 E29.7487
G1 X53 Y112.349 E31.89875
G1 X52.395 Y112.309 E31.90902
G1 X51.801 Y112.19 E31.91927
G1 X51.227 Y111.994 E31.92954
G1 X50.684 Y111.723 E31.93981
G1 X50.181 Y111.384 E31.95008
G1 X49.728 Y110.982 E31.96034
G1 X49.331 Y110.524 E31.9706
G1 X48.998 Y110.017 E31.98087
G1 X48.734 Y109.471 E31.99113
G1 X48.545 Y108.895 E32.0014
G1 X48.433 Y108.299 E32.01166
G1 X48.4 Y107.749 E32.02099
G1 X48.4 Y107.25 E32.02944
G1 X48.44 Y106.645 E32.0397
G1 X48.559 Y106.051 E32.04996
G1 X48.755 Y105.477 E32.06023
G1 X49.026 Y104.934 E32.0705
G1 X49.365 Y104.431 E32.08077
G1 X49.767 Y103.978 E32.09102
G1 X50.225 Y103.581 E32.10129
G1 X50.732 Y103.248 E32.11155
G1 X51.278 Y102.984 E32.12182
G1 X51.854 Y102.795 E32.13208
G1 X52.45 Y102.683 E32.14235
G1 X53 Y102.65 E32.15168
G1 X180 Y102.65 E34.30173
G1 X180.605 Y102.69 E34.31199
G1 X181.199 Y102.809 E34.32225
G1 X181.773 Y103.005 E34.33252
G1 X182.316 Y103.276 E34.34279
G1 X182.819 Y103.615 E34.35306
G1 X183.272 Y104.017 E34.36331
G1 X183.669 Y104.475 E34.37357
G1 X184.002 Y104.982 E34.38384
G1 X184.266 Y105.528 E34.39411
G1 X184.455 Y106.104 E34.40437
G1 X184.567 Y106.7 E34.41464
G1 X184.6 Y107.25 E34.42397
G1 X184.6 Y107.749 E34.43241
G1 X184.56 Y108.354 E34.44268
G1 X184.441 Y108.948 E34.45293
G1 X184.245 Y109.522 E34.4632
G1 X183.974 Y110.065 E34.47348
G1 X183.635 Y110.568 E34.48375
G1 X183.233 Y111.021 E34.494
G1 X182.775 Y111.418 E34.50426
G1 X182.268 Y111.751 E34.51453
G1 X181.722 Y112.015 E34.5248
G1 X181.146 Y112.204 E34.53506
M204 S625
M205 X6
G0 F4285.7 X181.355 Y111.725
M204 S500
M205 X5
G1 F1200 X180.795 Y111.873 E34.54487
G1 X180 Y111.949 E34.55839
G1 X53 Y111.949 E36.70843
G1 X52.422 Y111.909 E36.71824
G1 X51.855 Y111.79 E36.72805
G1 X51.31 Y111.594 E36.73786
G1 X50.797 Y111.325 E36.74766
G1 X50.326 Y110.988 E36.75747
G1 X49.906 Y110.589 E36.76727
G1 X49.544 Y110.136 E36.77709
G1 X49.249 Y109.638 E36.78689
G1 X49.024 Y109.104 E36.7967
G1 X48.876 Y108.544 E36.80651
G1 X48.8 Y107.749 E36.82003
G1 X48.8 Y107.25 E36.82847
G1 X48.84 Y106.672 E36.83828
G1 X48.959 Y106.105 E36.84809
G1 X49.155 Y105.56 E36.8579
G1 X49.424 Y105.047 E36.8677
G1 X49.761 Y104.576 E36.87751
G1 X50.16 Y104.156 E36.88731
G1 X50.613 Y103.794 E36.89713
G1 X51.111 Y103.499 E36.90693
G1 X51.645 Y103.274 E36.91674
G1 X52.205 Y103.126 E36.92655
G1 X53 Y103.05 E36.94007
G1 X180 Y103.05 E39.09011
G1 X180.578 Y103.09 E39.09992
G1 X181.145 Y103.209 E39.10973
G1 X181.69 Y103.405 E39.11954
G1 X182.203 Y103.674 E39.12934
G1 X182.674 Y104.011 E39.13915
G1 X183.094 Y104.41 E39.14895
G1 X183.456 Y104.863 E39.15877
G1 X183.751 Y105.361 E39.16857
G1 X183.976 Y105.895 E39.17838
G1 X184.124 Y106.455 E39.18819
G1 X184.2 Y107.25 E39.20171
G1 X184.2 Y107.749 E39.21015
G1 X184.16 Y108.327 E39.21996
G1 X184.041 Y108.894 E39.22977
G1 X183.845 Y109.439 E39.23958
G1 X183.576 Y109.952 E39.24938
G1 X183.239 Y110.423 E39.25919
G1 X182.84 Y110.843 E39.26899
G1 X182.387 Y111.205 E39.27881
G1 X181.889 Y111.5 E39.28861
G1 X181.355 Y111.725 E39.29842
M204 S625
M205 X6
G0 F4285.7 X180.994 Y111.417
M204 S500
M205 X5
G1 F1200 X180.453 Y111.522 E39.30775
G1 X180 Y111.549 E39.31543
G1 X53 Y111.549 E41.46548
G1 X52.45 Y111.509 E41.47482
G1 X51.912 Y111.39 E41.48414
G1 X51.397 Y111.194 E41.49347
G1 X50.916 Y110.926 E41.50279
G1 X50.478 Y110.592 E41.51212
G1 X50.094 Y110.197 E41.52145
G1 X49.77 Y109.751 E41.53078
G1 X49.515 Y109.263 E41.5401
G1 X49.332 Y108.743 E41.54943
G1 X49.227 Y108.202 E41.55876
G1 X49.2 Y107.749 E41.56644
G1 X49.2 Y107.25 E41.57489
G1 X49.24 Y106.7 E41.58423
G1 X49.359 Y106.162 E41.59356
G1 X49.555 Y105.647 E41.60289
G1 X49.823 Y105.166 E41.61221
G1 X50.157 Y104.728 E41.62153
G1 X50.552 Y104.344 E41.63086
G1 X50.998 Y104.02 E41.64019
G1 X51.486 Y103.765 E41.64951
G1 X52.006 Y103.582 E41.65885
G1 X52.547 Y103.477 E41.66818
G1 X53 Y103.45 E41.67586
G1 X180 Y103.45 E43.8259
G1 X180.55 Y103.49 E43.83524
G1 X181.088 Y103.609 E43.84457
G1 X181.603 Y103.805 E43.8539
G1 X182.084 Y104.073 E43.86322
G1 X182.522 Y104.407 E43.87254
G1 X182.906 Y104.802 E43.88187
G1 X183.23 Y105.248 E43.8912
G1 X183.485 Y105.736 E43.90052
G1 X183.668 Y106.256 E43.90986
G1 X183.773 Y106.797 E43.91919
G1 X183.8 Y107.25 E43.92687
G1 X183.8 Y107.749 E43.93532
G1 X183.76 Y108.299 E43.94465
G1 X183.641 Y108.837 E43.95398
G1 X183.445 Y109.352 E43.96331
G1 X183.177 Y109.833 E43.97263
G1 X182.843 Y110.271 E43.98196
G1 X182.448 Y110.655 E43.99128
G1 X182.002 Y110.979 E44.00062
G1 X181.514 Y111.234 E44.00994
G1 X180.994 Y111.417 E44.01927
M204 S625
M205 X6
G0 F4285.7 X181.145 Y110.951
M204 S500
